images/icons/I_TT_icon.svg

<svg width="55" height="55" viewBox="0 0 55 55" fill="none" xmlns="http://www.w3.org/2000/svg">
<rect width="55" height="55" rx="10" fill="#6589E6"/>
<path fill-rule="evenodd" clip-rule="evenodd" d="M41.452 33.1632L42.4248 32.1907C43.037 31.5782 43.037 30.5818 42.4248 29.9693C42.1281 29.6728 41.7337 29.5093 41.314 29.5093C40.9991 29.5093 40.6981 29.6014 40.4424 29.7729L40.2374 29.0849L41.2904 28.0317C41.9029 27.4192 41.9029 26.4228 41.2904 25.8106C40.7267 25.2466 39.8379 25.2033 39.2223 25.6778L37.9745 21.4887C38.4729 21.0088 38.9502 20.5418 39.4 20.092C40.6963 18.7955 41.7503 17.4234 42.368 16.228C43.4116 14.2077 42.9748 13.1277 42.4246 12.5775C41.8746 12.0273 40.7947 11.5907 38.7741 12.6343C37.5789 13.2517 36.2066 14.3057 34.9103 15.6023C34.4605 16.0521 33.9933 16.5292 33.5136 17.0275L29.3243 15.7797C29.7988 15.1644 29.7554 14.2756 29.1917 13.7117C28.5793 13.0994 27.5828 13.0992 26.9706 13.7117L25.9174 14.7649L25.2292 14.56C25.4006 14.3039 25.4927 14.003 25.4927 13.6881C25.4927 13.2686 25.3293 12.874 25.0328 12.5775C24.4206 11.965 23.4239 11.965 22.8117 12.5775L21.8391 13.5501L16.8819 12.0735C16.7053 12.0211 16.5143 12.0693 16.3844 12.1995L15.1083 13.4756C14.894 13.6896 14.9223 14.0557 15.1667 14.2344L27.6742 23.3895C24.854 26.5691 22.1374 29.7527 20.2196 32.0272L16.5405 30.6121C16.3556 30.541 16.1462 30.5854 16.0061 30.7255L14.4937 32.2379C14.2981 32.4338 14.2981 32.751 14.4937 32.9466L22.0555 40.5083C22.2485 40.7016 22.5712 40.7016 22.7644 40.5083L24.2766 38.9962C24.4167 38.8561 24.4613 38.6465 24.3899 38.4615L22.9751 34.7828C25.2496 32.8649 28.4329 30.1483 31.6129 27.3279L32.6064 28.6857C32.7828 28.9267 33.1406 28.9578 33.3569 28.7524C33.5372 28.5812 33.5621 28.294 33.4156 28.0937L32.3652 26.6586C34.028 25.1745 35.6701 23.6772 37.16 22.2662L41.8826 38.1204L41.2312 38.7715L34.7404 29.9037C34.577 29.6803 34.2633 29.6318 34.04 29.7952C33.8164 29.9589 33.7678 30.2726 33.9315 30.4959L40.7679 39.8357C40.9467 40.08 41.3127 40.1083 41.5267 39.894L42.8028 38.618C42.933 38.488 42.9813 38.2968 42.9289 38.1204L41.452 33.1632ZM27.6796 14.4207C27.8985 14.2017 28.2641 14.2017 28.483 14.4207C28.7046 14.6422 28.7046 15.0025 28.483 15.2241L28.248 15.4591L27.0098 15.0902L27.6796 14.4207ZM23.5206 13.2865C23.7419 13.0649 24.1025 13.0649 24.324 13.2865C24.5456 13.508 24.5456 13.8684 24.324 14.0899L24.1694 14.2443L22.9315 13.8756L23.5206 13.2865ZM16.2305 13.7708L16.8819 13.1197L32.7361 17.8421C31.3252 19.3322 29.8278 20.9743 28.3434 22.6372L16.2305 13.7708ZM16.4847 31.6648L19.5368 32.8387C18.7712 33.7503 18.1842 34.4556 17.8379 34.873L15.5571 32.5923L16.4847 31.6648ZM18.55 35.5851C20.2974 33.4769 29.5339 22.3964 35.6193 16.311C36.8266 15.1034 38.1445 14.0881 39.2343 13.5252C40.0525 13.1023 41.1472 12.7178 41.7158 13.2865C42.2845 13.8551 41.8998 14.9499 41.4772 15.7681C40.9142 16.8579 39.8986 18.1754 38.691 19.383C32.6062 25.4679 21.5255 34.7047 19.4172 36.4524L18.55 35.5851ZM23.3375 38.5176L22.4101 39.445L20.1293 37.1642C20.5464 36.8181 21.252 36.2311 22.1636 35.4655L23.3375 38.5176ZM40.9124 30.6783C41.134 30.4567 41.4943 30.4567 41.7158 30.6783C41.9374 30.8998 41.9374 31.2602 41.7158 31.4817L41.1267 32.0708L40.7578 30.8329L40.9124 30.6783ZM39.7783 26.5193C39.9995 26.2978 40.3601 26.298 40.5817 26.5193C40.8006 26.7383 40.8006 27.1038 40.5817 27.3227L39.9119 27.9925L39.543 26.7543L39.7783 26.5193ZM39.0895 40.8689L34.812 45.1464C34.6296 45.3291 34.6174 45.6305 34.7853 45.8266C34.9728 46.0456 35.3171 46.0593 35.521 45.8554L39.7985 41.5779C39.9943 41.3821 39.9943 41.0648 39.7985 40.8689C39.6029 40.6733 39.2854 40.6733 39.0895 40.8689ZM37.6596 38.7303C37.8555 38.9259 37.8555 39.2434 37.6596 39.439L34.9863 42.1126C34.7824 42.3165 34.4382 42.3027 34.2506 42.0838C34.0828 41.8877 34.095 41.5862 34.2773 41.4036L36.9509 38.7303C37.1465 38.5344 37.464 38.5344 37.6596 38.7303ZM36.0556 36.7657C36.2515 36.5699 36.2515 36.2524 36.0556 36.0568C35.8598 35.8609 35.5425 35.8609 35.3466 36.0568L33.4752 37.9282C33.2928 38.1106 33.2807 38.4123 33.4488 38.6084C33.6361 38.8273 33.9803 38.8411 34.1842 38.6372L36.0556 36.7657ZM13.4244 15.471C13.62 15.2754 13.9375 15.2754 14.1334 15.471C14.329 15.6669 14.329 15.9842 14.1334 16.18L9.85588 20.4575C9.66261 20.6505 9.3399 20.6505 9.14689 20.4575C8.95104 20.2619 8.95104 19.9444 9.14689 19.7488L13.4244 15.471ZM16.272 17.6099C16.0762 17.4141 15.7589 17.4141 15.5633 17.6099L12.8898 20.2835C12.7071 20.4658 12.6952 20.7673 12.863 20.9634C13.0506 21.1823 13.3946 21.1961 13.5985 20.9922L16.272 18.3189C16.4679 18.123 16.4679 17.8055 16.272 17.6099ZM17.0741 21.7943C16.8809 21.9873 16.5584 21.9873 16.3652 21.7943C16.1696 21.5984 16.1696 21.2812 16.3652 21.0853L18.2366 19.2139C18.4324 19.0183 18.7497 19.0183 18.9456 19.2139C19.1412 19.4097 19.1412 19.727 18.9456 19.9229L17.0741 21.7943Z" fill="white"/>
</svg>

<?xml version="1.0" encoding="utf-8"?>
<!-- Generator: Adobe Illustrator 24.0.2, SVG Export Plug-In . SVG Version: 6.00 Build 0)  -->
<svg version="1.1" id="Layer_1" xmlns="http://www.w3.org/2000/svg" xmlns:xlink="http://www.w3.org/1999/xlink" x="0px" y="0px"
	 viewBox="0 0 55 55" style="enable-background:new 0 0 55 55;" xml:space="preserve">
<style type="text/css">
	.st0{fill:#6589E6;}
	.st1{fill-rule:evenodd;clip-rule:evenodd;fill:#FFFFFF;}
</style>
<path class="st0" d="M10,0h35c5.5,0,10,4.5,10,10v35c0,5.5-4.5,10-10,10H10C4.5,55,0,50.5,0,45V10C0,4.5,4.5,0,10,0z"/>
<path class="st1" d="M41.5,33.2l1-1c0.6-0.6,0.6-1.6,0-2.2c-0.3-0.3-0.7-0.5-1.1-0.5c-0.3,0-0.6,0.1-0.9,0.3l-0.2-0.7l1.1-1.1
	c0.6-0.6,0.6-1.6,0-2.2c-0.6-0.6-1.5-0.6-2.1-0.1L38,21.5c0.5-0.5,1-0.9,1.4-1.4c1.3-1.3,2.4-2.7,3-3.9c1-2,0.6-3.1,0.1-3.7
	c-0.5-0.6-1.6-1-3.7,0.1c-1.2,0.6-2.6,1.7-3.9,3c-0.4,0.4-0.9,0.9-1.4,1.4l-4.2-1.2c0.5-0.6,0.4-1.5-0.1-2.1c-0.6-0.6-1.6-0.6-2.2,0
	l-1.1,1.1l-0.7-0.2c0.2-0.3,0.3-0.6,0.3-0.9c0-0.4-0.2-0.8-0.5-1.1c-0.6-0.6-1.6-0.6-2.2,0l-1,1l-5-1.5c-0.2-0.1-0.4,0-0.5,0.1
	l-1.3,1.3c-0.2,0.2-0.2,0.6,0.1,0.8l12.5,9.2c-2.8,3.2-5.5,6.4-7.5,8.6l-3.7-1.4c-0.2-0.1-0.4,0-0.5,0.1l-1.5,1.5
	c-0.2,0.2-0.2,0.5,0,0.7l7.6,7.6c0.2,0.2,0.5,0.2,0.7,0l1.5-1.5c0.1-0.1,0.2-0.3,0.1-0.5L23,34.8c2.3-1.9,5.5-4.6,8.6-7.5l1,1.4
	c0.2,0.2,0.5,0.3,0.8,0.1c0.2-0.2,0.2-0.5,0.1-0.7l-1.1-1.4c1.7-1.5,3.3-3,4.8-4.4l4.7,15.9l-0.7,0.7l-6.5-8.9
	c-0.2-0.2-0.5-0.3-0.7-0.1c-0.2,0.2-0.3,0.5-0.1,0.7l6.8,9.3c0.2,0.2,0.5,0.3,0.8,0.1l1.3-1.3c0.1-0.1,0.2-0.3,0.1-0.5L41.5,33.2z
	 M27.7,14.4c0.2-0.2,0.6-0.2,0.8,0c0.2,0.2,0.2,0.6,0,0.8l-0.2,0.2L27,15.1L27.7,14.4z M23.5,13.3c0.2-0.2,0.6-0.2,0.8,0
	c0.2,0.2,0.2,0.6,0,0.8l-0.2,0.2l-1.2-0.4L23.5,13.3z M16.2,13.8l0.7-0.7l15.9,4.7c-1.4,1.5-2.9,3.1-4.4,4.8L16.2,13.8z M16.5,31.7
	l3.1,1.2c-0.8,0.9-1.4,1.6-1.7,2l-2.3-2.3L16.5,31.7z M18.5,35.6c1.7-2.1,11-13.2,17.1-19.3c1.2-1.2,2.5-2.2,3.6-2.8
	c0.8-0.4,1.9-0.8,2.5-0.2c0.6,0.6,0.2,1.7-0.2,2.5c-0.6,1.1-1.6,2.4-2.8,3.6c-6.1,6.1-17.2,15.3-19.3,17.1L18.5,35.6z M23.3,38.5
	l-0.9,0.9l-2.3-2.3c0.4-0.3,1.1-0.9,2-1.7L23.3,38.5z M40.9,30.7c0.2-0.2,0.6-0.2,0.8,0c0.2,0.2,0.2,0.6,0,0.8l-0.6,0.6l-0.4-1.2
	L40.9,30.7z M39.8,26.5c0.2-0.2,0.6-0.2,0.8,0c0.2,0.2,0.2,0.6,0,0.8L39.9,28l-0.4-1.2L39.8,26.5z M39.1,40.9l-4.3,4.3
	c-0.2,0.2-0.2,0.5,0,0.7c0.2,0.2,0.5,0.2,0.7,0l4.3-4.3c0.2-0.2,0.2-0.5,0-0.7C39.6,40.7,39.3,40.7,39.1,40.9z M37.7,38.7
	c0.2,0.2,0.2,0.5,0,0.7L35,42.1c-0.2,0.2-0.5,0.2-0.7,0c-0.2-0.2-0.2-0.5,0-0.7l2.7-2.7C37.1,38.5,37.5,38.5,37.7,38.7z M36.1,36.8
	c0.2-0.2,0.2-0.5,0-0.7c-0.2-0.2-0.5-0.2-0.7,0l-1.9,1.9c-0.2,0.2-0.2,0.5,0,0.7c0.2,0.2,0.5,0.2,0.7,0L36.1,36.8z M13.4,15.5
	c0.2-0.2,0.5-0.2,0.7,0c0.2,0.2,0.2,0.5,0,0.7l-4.3,4.3c-0.2,0.2-0.5,0.2-0.7,0c-0.2-0.2-0.2-0.5,0-0.7L13.4,15.5z M16.3,17.6
	c-0.2-0.2-0.5-0.2-0.7,0l-2.7,2.7c-0.2,0.2-0.2,0.5,0,0.7c0.2,0.2,0.5,0.2,0.7,0l2.7-2.7C16.5,18.1,16.5,17.8,16.3,17.6z M17.1,21.8
	c-0.2,0.2-0.5,0.2-0.7,0c-0.2-0.2-0.2-0.5,0-0.7l1.9-1.9c0.2-0.2,0.5-0.2,0.7,0c0.2,0.2,0.2,0.5,0,0.7L17.1,21.8z"/>
</svg>
